!!!!SEGMENT: pl-kk--kk-i-133--002_anonim--deo-gratias.krn
!!!cenid: 16xx:787
!!!COM: Anonim
!!!COM-rismid: pe30004985
!!!CDT:
!!!CNT:
!!!OTL: Deo gratias
!!!PDT:
!!!AGN: Sacred
!!!SMS-siglum: PL-Kk
!!!SMS-shelfmark: Kk.I.133
!!!SMS-shelfwork: 002 W
!!!SMS-variant:
!!!SMS-altvar:
!!!NIFC-rismid: 1001144203
!!!URL-scan: http://repozytorium.nifc.pl/skany/pl-kk-nut--i-133
!!!ONB-nifc: UWAGA: źródło to partytura (S,A,T,B) 3 utworów: 1. Benedicam Domino, 2. Deo gratias, 3. Deo gratias (z tytułem pod głosem B „De Confessore”)
!!!key:
**kern	**fba	**kern	**text	**kern	**kern
*part4	*part4	*part3	*part3	*part2	*part1
*staff4	*	*staff3	*staff3	*staff2	*staff1
*Ibass	*	*Itenor	*	*Ialto	*Isoprn
*I"Basso	*	*I"Tenore	*	*I"Alto	*I"Canto
*clefF4	*	*clefC4	*	*clefC3	*clefC1
*k[<b-]	*	*k[<b-]	*	*k[<b-]	*k[<b-]
*F:	*	*F:	*	*F:	*F:
*M2/2	*	*M2/2	*	*M2/2	*M2/2
*met(c|)	*	*met(c|)	*	*met(c|)	*met(c|)
=1	=1	=1	=1	=1	=1
*2\right	*	*	*	*	*
!	!	!	!	!LO:TX:b:t=Deo gratias.	!
2F\	.	1F/	De-	[<1<f\	1cc\
2A\	6	.	.	.	.
=2	=2	=2	=2	=2	=2
*	*	*	*	*2\right	*2\right
2B-\	6	1G/	.	2f\]	2b-\
2c\	.	.	.	2e\	2g\
=3	=3	=3	=3	=3	=3
[<1F\	.	1A\	-o	2f\	1a\
.	.	.	.	2c\	.
=4	=4	=4	=4	=4	=4
!	!	!	!	!	!LO:TX:a:t=b
2F\]	4 2	1G/	.	2d\	2b-\
2E\	6	.	.	2e\	2cc\
=5	=5	=5	=5	=5	=5
2F\	.	1A\	.	2c\	2a\
!	!	!	!	!	!LO:TX:a:t=d
2d\	.	.	.	[<2f\	[<2dd\ 2f\
=6	=6	=6	=6	=6	=6
2B-\	-	1B-\	.	2f\]	2dd\]
2G\	6\	.	.	2e\	2b-\
=7	=7	=7	=7	=7	=7
2F\	.	1A\	.	[<1f\	1cc\
2AA/	6	.	.	.	.
=8	=8	=8	=8	=8	=8
2BB-/	6	1G/	.	2f\]	2b-\
2C/	.	.	.	2e\	2g/
=9	=9	=9	=9	=9	=9
2F\	.	1F/	.	[<1f\	[<1a\
2E\	2	.	.	.	.
=10	=10	=10	=10	=10	=10
2D\	.	1A\	gra-	1f\]	2a\]
2B-\	7	.	.	.	[<2dd\
=11	=11	=11	=11	=11	=11
2E\	7	1G/	.	1e\	2dd\]
2A\	7	.	.	.	[<2cc\
=12	=12	=12	=12	=12	=12
2D\	7	1F/	.	1d\	2cc\]
2G\	7	.	.	.	[<2b-\
=13	=13	=13	=13	=13	=13
2C/	7	1E/	.	1c\	2b-\]
2F\	7	.	.	.	[<2a\
=14	=14	=14	=14	=14	=14
2A\	6	1F/	.	2c\	2a\]
2F\	.	.	.	[<2f\	2cc\
=15	=15	=15	=15	=15	=15
2B-\	6	1D/	.	2f\]	2b-\
2G\	.	.	.	2g\	2dd\
=16	=16	=16	=16	=16	=16
!	!	!	!	!LO:SIC:o:t:v=wykreślony dźwięk f	!
2A\	6	1F/	.	2c\	2cc\
2B-\	6	.	.	2d\	4b-\
.	5	.	.	.	4a\
=17	=17	=17	=17	=17	=17
!	!	!	!	!LO:SIC:o:t:v=wykreślone dźwięki c i d	!
2c\	.	1E/	.	1e\	2g\
2C/	.	.	.	.	[<2cc\
=18	=18	=18	=18	=18	=18
!LO:SIC:o:t:v=wykreślone dźwięki B- i GG	!	!	!	!	!
2E/	6	1G/	.	2e\	2cc\]
2C/	.	.	.	2e\	2cc\
=19	=19	=19	=19	=19	=19
2F\	.	1A\	.	[<1f\	2a\
2AA/	6	.	.	.	2cc\
=20	=20	=20	=20	=20	=20
!	!	!	!	!LO:N:xstem:cue:vis=4	!
2BB-/	6 5	2.G/	-ti-	2f\]	2dd\
2C/	.	.	.	2e\	2cc\
.	.	4G/	.	.	.
=21	=21	=21	=21	=21	=21
00FF/	.	00F/;	-as.	00f\	00cc\
==	==	==	==	==	==
*-	*-	*-	*-	*-	*-
!!!system-decoration: [<(s1,s2,s3,s4)]
!!!RDF**kern: > = above
!!!RDF**kern: < = below
!!!EED: Leszek Kubiak
!!!EST: 2021-03-01
!!!AIN: 1 alto 1 bass 1 soprn 1 tenor
!!!ENC: Tomasz Grochalski
!!!END: 2021-02-16
